@extra/icons/0nyX/symbolic-24/edit-delete.svg

<?xml version="1.0" encoding="UTF-8" standalone="no"?>
<svg xmlns="http://www.w3.org/2000/svg" version="1.1" viewBox="-4 -4 24 24">
 <circle cx="8" cy="8" r="8" fill="#333"/>
 <path style="text-decoration-line:none;text-transform:none;text-indent:0" font-family="Andale Mono" d="m8 1.031a6.963 6.963 0 0 0 -6.969 6.969 6.963 6.963 0 0 0 6.969 6.969 6.963 6.963 0 0 0 6.969 -6.969 6.963 6.963 0 0 0 -6.969 -6.969zm-3 3.969h1.031c0.255 0.011 0.51 0.129 0.688 0.313l1.281 1.28 1.313-1.28c0.265-0.231 0.446-0.306 0.687-0.313h1v1c0 0.286-0.034 0.55-0.25 0.75l-1.281 1.281 1.25 1.25c0.188 0.188 0.281 0.454 0.281 0.719v1h-1c-0.265 0-0.53-0.093-0.719-0.281l-1.281-1.281-1.281 1.28a1.015 1.015 0 0 1 -0.719 0.282h-1v-1c0-0.265 0.093-0.53 0.281-0.719l1.282-1.25-1.283-1.281a0.909 0.909 0 0 1 -0.28 -0.75z" color="#f1f2f2" overflow="visible" font-weight="400" fill="#c00"/>
</svg>

<svg xmlns="http://www.w3.org/2000/svg" viewBox="-4 -4 24 24">
    <path style="line-height:normal;-inkscape-font-specification:'Andale Mono';text-indent:0;text-align:start;text-decoration-line:none;text-transform:none;marker:none" d="M8 1.031A6.963 6.963 0 0 0 1.031 8 6.963 6.963 0 0 0 8 14.969 6.963 6.963 0 0 0 14.969 8 6.963 6.963 0 0 0 8 1.031zM5 5h1.031c.255.011.51.129.688.313L8 6.593l1.313-1.28c.265-.231.446-.306.687-.313h1v1c0 .286-.034.55-.25.75L9.469 8.031l1.25 1.25c.188.188.281.454.281.719v1h-1c-.265 0-.53-.093-.719-.281L8 9.438l-1.281 1.28A1.015 1.015 0 0 1 6 11H5v-1c0-.265.093-.53.281-.719l1.282-1.25L5.28 6.75A.909.909 0 0 1 5 6z" color="#f1f2f2" font-weight="400" font-family="Andale Mono" overflow="visible" fill="#c00"/>
</svg>
